X: 336
P: Longways for as many as will
M: 6/8
L: 1/8
K: Bb
V: 1
|:\
def gfe | dcB A2F | Ggf =ecf | f2=e f3 :|
|:\
efe g2e | ded f2d | cdc edc | dcB AGF |\
V: 2 clef=bass middle=d
|:\
z2z zzf | d2c B2e | f3 d3 | A3 B3 |\
zcd edc | BAG F2A | B3 c2A | B2c F3 :|
|:\
c3 edc | B3 dcB | A2A G2A | BAG F3 |\
z2z zzf | d2c B2e | d2e f3 | B3- B3 :|

